icons/ampersands.svg

<svg width="24" height="24" viewBox="0 0 24 24" fill="none" xmlns="http://www.w3.org/2000/svg">
<path d="M10.8887 18C8.85982 15.8367 1.99972 12 2.53417 8.20909C2.53417 7.00909 3.53863 6 4.71532 6C5.892 6 6.89757 7.008 6.89757 8.20909C6.89757 10.2055 4.02531 12.0327 2.78751 13.2862C1.7375 14.3498 1.7375 16.128 2.78751 17.1916C3.83641 18.2531 5.60644 18.2422 6.64423 17.1916L10.8887 12.7495M22 18C19.9711 15.8367 13.111 12 13.6454 8.20909C13.6454 7.00909 14.6499 6 15.8266 6C17.0033 6 18.0088 7.008 18.0088 8.20909C18.0088 10.2055 15.1366 12.0327 13.8988 13.2862C12.8488 14.3498 12.8488 16.128 13.8988 17.1916C14.9477 18.2531 16.7177 18.2422 17.7555 17.1916L22 12.7495" stroke="black" stroke-width="2" stroke-linecap="round" stroke-linejoin="round"/>
</svg>

<svg xmlns="http://www.w3.org/2000/svg" width="24" height="24" viewBox="0 0 24 24" fill="none" stroke="currentColor" stroke-width="2" stroke-linecap="round" stroke-linejoin="round">
<path d="M10.889 18c-2.03-2.163-8.89-6-8.355-9.79C2.534 7.01 3.54 6 4.715 6s2.183 1.008 2.183 2.21c0 1.995-2.873 3.823-4.11 5.076-1.05 1.064-1.05 2.842 0 3.906 1.048 1.061 2.818 1.05 3.856 0l4.245-4.443M22 18c-2.029-2.163-8.889-6-8.355-9.79 0-1.2 1.005-2.21 2.182-2.21 1.176 0 2.182 1.008 2.182 2.21 0 1.995-2.872 3.823-4.11 5.076-1.05 1.064-1.05 2.842 0 3.906 1.049 1.061 2.819 1.05 3.857 0L22 12.749"/>
</svg>
